X: 20196
T: Jody's
R: reel
M: 4/4
K: Gmajor
|:(3DEF|G2 (3BAG EDEF|G2Bd egge|d2 (3BAG AGFG|AGBG AGED|
G2 (3BAG EDEF|G2Bd egge|d2BG AGEG|DGGF G2:|
Bd|g2fg edBd|g2bg agef|gfgd edBd|eaag agef|
gfgd edBd|g2bg agef|gfgd edBG|AGED G2Bd|
g2fg edBd|g2bg agef|gfgd edBG|A2BG AGED|
G2BG EDEF|G2Bd egge|d2 (3BAG AGEG|DGGF G2||

